packages/assets/static/images/icons/motorcycle.svg

<svg width="24" height="24" viewBox="0 0 24 24" xmlns="http://www.w3.org/2000/svg">
<g clip-path="url(#clip0_2076_2379)">
<path d="M20.248 11.625C20.0407 11.6255 19.8338 11.6427 19.6293 11.6766L19.0836 10.2572C19.4656 10.1695 19.8562 10.1252 20.248 10.125C20.4469 10.125 20.6377 10.046 20.7783 9.90533C20.919 9.76468 20.998 9.57391 20.998 9.375C20.998 9.17609 20.919 8.98532 20.7783 8.84467C20.6377 8.70402 20.4469 8.625 20.248 8.625H18.4555L17.1983 5.35594C17.1439 5.21436 17.0479 5.09261 16.9228 5.00675C16.7978 4.92089 16.6497 4.87495 16.498 4.875H13.498C13.2991 4.875 13.1083 4.95402 12.9677 5.09467C12.827 5.23532 12.748 5.42609 12.748 5.625C12.748 5.82391 12.827 6.01468 12.9677 6.15533C13.1083 6.29598 13.2991 6.375 13.498 6.375H15.9833L16.8486 8.625H14.248C12.5136 8.625 11.1074 9.02906 10.1821 9.79313C9.96433 9.96878 9.7018 10.08 9.42414 10.1143C9.14648 10.1486 8.86477 10.1046 8.61083 9.98719C7.61895 9.53625 2.91645 7.62469 2.50208 7.4625L1.96676 7.2525C1.8176 7.18729 1.65966 7.14433 1.49801 7.125C1.32316 7.12542 1.15395 7.18692 1.01963 7.29888C0.885316 7.41083 0.794337 7.56619 0.762422 7.73811C0.730507 7.91002 0.759663 8.08769 0.84485 8.24039C0.930037 8.39309 1.0659 8.51122 1.22895 8.57437C1.27208 8.59125 5.65301 10.29 7.99114 11.3522C8.50113 11.5842 9.06569 11.6695 9.62145 11.5984C10.1772 11.5274 10.7022 11.3028 11.1374 10.95C11.593 10.575 12.5033 10.125 14.249 10.125H16.0133C14.9185 11.0039 14.1261 12.2034 13.7474 13.5553C13.6566 13.8658 13.4671 14.1382 13.2076 14.3312C12.9481 14.5242 12.6327 14.6274 12.3093 14.625H7.42301C7.23715 13.7145 6.71982 12.9054 5.97132 12.3546C5.22282 11.8038 4.29647 11.5506 3.37187 11.644C2.44727 11.7374 1.59028 12.1708 0.967062 12.8601C0.343839 13.5495 -0.0012207 14.4457 -0.0012207 15.375C-0.0012207 16.3043 0.343839 17.2005 0.967062 17.8899C1.59028 18.5792 2.44727 19.0126 3.37187 19.106C4.29647 19.1994 5.22282 18.9462 5.97132 18.3954C6.71982 17.8446 7.23715 17.0355 7.42301 16.125H12.3093C12.9598 16.1264 13.593 15.9158 14.113 15.525C14.6331 15.1342 15.0115 14.5846 15.1911 13.9594C15.3782 13.2943 15.6947 12.6728 16.1225 12.1303C16.5503 11.5878 17.0809 11.1351 17.684 10.7981L18.2296 12.2166C17.4694 12.7031 16.9102 13.4475 16.6547 14.3131C16.3991 15.1787 16.4642 16.1074 16.8382 16.9288C17.2122 17.7502 17.8698 18.4092 18.6905 18.7848C19.5111 19.1604 20.4397 19.2275 21.3058 18.9736C22.1719 18.7198 22.9174 18.1621 23.4055 17.4029C23.8936 16.6438 24.0915 15.734 23.9629 14.8407C23.8343 13.9474 23.3878 13.1304 22.7055 12.5397C22.0231 11.949 21.1505 11.6242 20.248 11.625ZM3.74801 16.125H5.86864C5.69172 16.6254 5.34359 17.0472 4.88578 17.3157C4.42797 17.5843 3.88996 17.6823 3.36684 17.5926C2.84372 17.5028 2.36917 17.231 2.02706 16.8252C1.68495 16.4194 1.49732 15.9058 1.49732 15.375C1.49732 14.8442 1.68495 14.3306 2.02706 13.9248C2.36917 13.519 2.84372 13.2472 3.36684 13.1574C3.88996 13.0677 4.42797 13.1657 4.88578 13.4343C5.34359 13.7028 5.69172 14.1246 5.86864 14.625H3.74801C3.5491 14.625 3.35834 14.704 3.21768 14.8447C3.07703 14.9853 2.99801 15.1761 2.99801 15.375C2.99801 15.5739 3.07703 15.7647 3.21768 15.9053C3.35834 16.046 3.5491 16.125 3.74801 16.125ZM20.248 17.625C19.7884 17.6244 19.34 17.4831 18.9632 17.2201C18.5863 16.9571 18.299 16.585 18.1399 16.1538C17.9808 15.7226 17.9576 15.2531 18.0733 14.8083C18.1891 14.3635 18.4383 13.9649 18.7874 13.6659L19.5477 15.6441C19.6191 15.8298 19.7613 15.9796 19.9431 16.0605C20.1249 16.1413 20.3313 16.1467 20.5171 16.0753C20.7028 16.004 20.8526 15.8617 20.9335 15.6799C21.0143 15.4981 21.0197 15.2917 20.9483 15.1059L20.1871 13.125H20.248C20.8448 13.125 21.417 13.3621 21.839 13.784C22.261 14.206 22.498 14.7783 22.498 15.375C22.498 15.9717 22.261 16.544 21.839 16.966C21.417 17.3879 20.8448 17.625 20.248 17.625Z"/>
</g>
<defs>
<clipPath id="clip0_2076_2379">
<rect width="24" height="24"/>
</clipPath>
</defs>
</svg>

<svg viewBox="0 0 24 24" xmlns="http://www.w3.org/2000/svg" aria-hidden="true" fill="currentColor"><g clip-path="url(#a)"><path d="M20.248 11.625a4 4 0 0 0-.619.052l-.545-1.42a5.2 5.2 0 0 1 1.164-.132.75.75 0 1 0 0-1.5h-1.793l-1.257-3.27a.75.75 0 0 0-.7-.48h-3a.75.75 0 1 0 0 1.5h2.485l.866 2.25h-2.601c-1.734 0-3.14.404-4.066 1.168a1.5 1.5 0 0 1-1.571.194c-.992-.45-5.695-2.362-6.109-2.524l-.535-.21a1.7 1.7 0 0 0-.469-.128.75.75 0 0 0-.269 1.45c.043.016 4.424 1.715 6.762 2.777a3.01 3.01 0 0 0 3.146-.402c.456-.375 1.366-.825 3.112-.825h1.764a6.73 6.73 0 0 0-2.266 3.43 1.49 1.49 0 0 1-1.438 1.07H7.423a3.75 3.75 0 1 0 0 1.5h4.886a2.99 2.99 0 0 0 2.882-2.166 5.25 5.25 0 0 1 2.493-3.16l.546 1.418a3.75 3.75 0 1 0 2.018-.592m-16.5 4.5h2.12a2.25 2.25 0 1 1 0-1.5h-2.12a.75.75 0 1 0 0 1.5m16.5 1.5a2.25 2.25 0 0 1-1.46-3.96l.76 1.98a.75.75 0 0 0 1.4-.54l-.76-1.98h.06a2.25 2.25 0 0 1 0 4.5"/></g><defs><clipPath id="a"><path d="M0 0h24v24H0z"/></clipPath></defs></svg>
